X:1
T:Title
%%score [ 1 ( 2 3 ) 4 5 ]
L:1/8
Q:1/4=120
M:4/4
K:Gb
V:1 treble nm="Midi_1"
V:2 treble nm="Midi_1"
V:3 treble 
V:4 treble-8 nm="Midi_1"
V:5 bass nm="Midi_1"
V:1
 z2 | z8 | z8 |"^The blue bird" z8 |!pp! e8 |"^C.V.Stanford""^(1852-1924)" z8 | z8 | z8 | e8 | z8 | %10
w: ||||blue,||||blue.||
 A2 A2 z2!<(! AB!<)! | c4 z B AB | AFDF A2 d2 | d6 z2 | z2 z d g4- |!<(! g4 c4!<)! | %16
w: O'er it, as I|looked, there flew A-|cross the wa- ters, cold and|still,|A bird|* whose|
!<(! (c2 B2 e2!<)! d2 | a2 g4)!>(! A2 | e6!>)! d2 |!ppp! d8- | d2 z2 z4 | z8 | z8 | z8 | %24
w: wings * * *|* * were|pa- lest|blue.|||||
!p!!<(! e8 | z8!<)! | z8 |!>(! z8 |!mf! e8!>)! | z8 | z2 z .A .c.c z2 | D3!<(! F A2 d2 | %32
w: blue,||||blue.||A mo- ment,|ere the bird had|
 d6!<)! z2 | z2 z!mf! d g4- | g4 c4 | (c2 B2 e2 d2 | a2) g4 A2 | e2 d6 |!>(! e6 A2 | %39
w: passed,|It caught|* his|im * * *|* age, his|im- age|as he|
"^______" d8-!>)! |"^più lento""^___________"!>(! d8 | z8!>)! | z8 | z8 | %44
w: flew.|||||
!ppp!"^quasi niente" !fermata!e8 |] %45
w: blue.|
V:2
!pp!"^Mary Coleridge""^(1861-1907)" [GB]2 | [GA]6 [GB]2 | [GA]4- [GA]3 (.[GB] | %3
w: The|lake lay|blue * be-|
 .[GA].[GB]) [Gc]6- | [Gc]6 [EG]2 | [EF]6 [EG]2 | [EF]4- [EF]3 (.[EG] | .[EF].[EG]) [EA]6- | %8
w: low the hill,|* the|lake lay|blue * be-|low the hill,|
 [EA]4 z2 z (.[CE] | .[C=D].[CE]) [CF]6- | [CF]4 [CE]4 |"^( )" D8- | D8 | D6 D2 | G6 G2 | G6 A2 | %16
w: * be-|low the hill,|* lay||||||
!<(! (A2 B4)!<)! A2 | (A2 G2)!>(! G4 | G4!>)! F4 |!ppp! G8- | G2 z2 z2!p! [GB]2 | [GA]6 [GB]2 | %22
w: bird * whose|wings * were|pa- lest|blue.|* The|sky a-|
 [GA]4- [GA]3"^cresc." [GB] | [GA][GB] [Gc]6- | [Gc]6 [EG]2 | [EF]6 [EG]2 | [EF]6 [EG]2 | %27
w: \-bove * was|blue at last,|* The|sky be-|neath me|
 [EF][EG]!>(! [EA]6- | [EA]4!>)! z2 [CE]2 | [C=D]6 [CE]2 |!pp! (E4 !courtesy!_D4- | D8) | %32
w: blue in blue,|* was|blue in|blue, *||
 D6!<(! D2 | G6!<)!!mf! G2 | G6 A2 | (A2 B4) A2 | (A2 G2) G4- | G2 A2 c2 B2 |!>(! G4 F4 | G8!>)! | %40
w: blue in|blue, It|caught, it||||as he|flew.|
 z4 z2!ppp! [GB]2 | [GA]6 [GB]2 | [GA]4- [GA]2 z (.[GB] | .[GA].[GB]) [Gc]6- | %44
w: The|lake lay|blue * be-|low the hill.|
 !fermata![Gc]6 !fermata!z2 |] %45
w: |
V:3
 x2 | x8 | x8 | x8 | x8 | x8 | x8 | x8 | x8 | x8 | x8 | (C8 | C8) | (C2 B,4) B,2 | D6 D2 | %15
w: |||||||||||blue,||cold * and|still, there|
 (D2!<(! E4) G2!<)! | G6 F2 | (F2 G2) G4 | (F2 E2) F4 | D8- | D2 x2 x2 x2 | x8 | x8 | x8 | x8 | %25
w: flew * A||||||||||
 x8 | x8 | x8 | x8 | x8 | C8- | C8 | (C2 B,4) B,2 | D6 D2 | (D2 E4) G2 | G6 F2 | (F2 G2) G4 | %37
w: ||||||||||caught his|im * age,|
 G2 G2 G2 G2 | (F2 E2) (E2 D2) | D8 | x8 | x8 | x8 | x8 | x8 |] %45
w: * his im- age||||||||
V:4
!pp! d2 | c6 d2 | e4- e3 (.e | .e.d) c6- | c6 B2 | A6 B2 | A4- A3 (.B | .c.B) A6- | A4 z2 z (.G | %9
w: The|lake lay|blue * be-|low the hill,|* the|lake lay|blue * be-|low the hill,|* be-|
 .F.E) =D6- | D4 A4 | A8- | A8 | G6 G2 | B6 B2 | (B2!<(! c4) c2!<)! |!<(! (c2 d2 e2)!<)! A2 | %17
w: low the hill,|* lay|blue,||cold and|still, there|flew * A|bird * * whose|
 d4!>(! e4 | c4!>)! c4 |!ppp! B8- | B2 z2 z2!p! d2 | c6 d2 | e4- e3"^cresc." e | ed c6- | c6 B2 | %25
w: wings were|pa- lest|blue.|* The|sky a-|\-bove * was|blue at last,|* The|
 c6 B2 | A6 B2 | cB!>(! A6- | A4!>)! z2 G2 | F6 G2 |!pp! A8- | A8 | G6!<(! G2 | B6!<)!!mf! B2 | %34
w: sky be-|neath me|blue in blue,|* was|blue in|blue,||blue in|blue, It|
 (B2 c4) c2 | (c2 d2 e2) A2 | d4 c4- | c2 c2 e2 d2 |!>(! c4 c4 | (c4 B4)!>)! | z4 z2!ppp! d2 | %41
w: caught, * it|caught * * his|im- age,|* his im- age|as he|flew. *|The|
 c6 d2 | e4- e2 z (.e | .e.d) c6- | !fermata!c6 !fermata!z2 |] %45
w: lake lay|blue * be-|low the hill.||
V:5
!pp! G,2 | E,6 D,2 | C,4- C,3 (.B,, | .C,.B,,) A,,6- | A,,6 B,,2 | C,6 D,2 | C,4- C,3 (.B,, | %7
w: The|lake lay|blue * be-|low the hill,|* the|lake lay|blue * be-|
 .A,,.G,,) F,,6- | F,,4 z2 z (.G,, | .A,,.A,,) A,,6- | A,,4 G,,4 | F,,8- | F,,8 | _F,,6 _F,2 | %14
w: low the hill,|* be-|low the hill,|* lay|blue,||cold and|
 E,6 E,2 |!<(! A,,6 E,2!<)! |"^This edition  Andrew Sims 2000"!<(! D,4 C,4!<)! | B,,4!>(! C,4 | %18
w: still, there|flew A|bird whose|wings were|
 A,,4!>)! D,4 |!ppp! G,,8- | G,,2 z2 z2!p! G,2 | E,6 G,2 | C4- C3"^cresc." B, | CB, A,6- | %24
w: pa- lest|blue.|* The|sky a-|\-bove * was|blue at last,|
 A,6 B,2 | A,6 D,2 | C,6 B,,2 | A,,G,,!>(! F,,6- | F,,4!>)! z2 G,,2 | A,,6 G,,2 |!pp! F,,8- | %31
w: * The|sky be-|neath me|blue in blue,|* was|blue in|blue,|
 F,,8 | _F,,6!<(! F,,2 | _F,6!<)!!mf! F,2 | E,4 A,,4 | D,4 C,4 | B,,4 E,4 | D,8- |!>(! D,4 D,4 | %39
w: |blue in|blue, It|caught, it|caught his|im- age|as|* he|
 _F,8!>)! | z4 z2!ppp! _F,2 | E,6 D,2 | C,4- C,2 z (.B,, | .C,.B,,) A,,6- | %44
w: flew.|The|lake lay|blue * be-|low the hill.|
 !fermata!A,,6 !fermata!z2 |] %45
w: |

